assets/images/icon 3.svg

<svg width="67" height="61" viewBox="0 0 67 61" fill="none" xmlns="http://www.w3.org/2000/svg">
<g clip-path="url(#clip0_99_59)">
<path d="M41.4503 22.69C38.117 28.0233 34.7836 33.3567 31.4503 38.69L30.0003 41.07C29.9103 41.22 29.8103 41.35 29.7103 41.5L29.2803 42.12L28.6503 41.7L28.2303 41.42L25.4803 39.42L20.7503 36.06C20.3374 35.6866 19.7968 35.4861 19.2403 35.5C18.8503 35.58 18.4703 35.94 18.0503 36.61L15.7303 40.32C12.3969 45.6533 9.06361 50.9867 5.73027 56.32C5.57435 56.651 5.31914 56.9252 5.00011 57.1045C4.68108 57.2837 4.31414 57.359 3.9503 57.32C3.06754 57.275 2.18304 57.275 1.30028 57.32C0.960549 57.3276 0.636879 57.466 0.396593 57.7063C0.156307 57.9466 0.0179388 58.2703 0.0103015 58.61C-0.0146759 58.9528 0.0960992 59.2917 0.318712 59.5536C0.541325 59.8155 0.857942 59.9794 1.2003 60.01C1.5098 60.0351 1.82081 60.0351 2.1303 60.01H64.5703C65.5703 60.01 66.1303 59.46 66.1203 58.62C66.1103 57.78 65.5203 57.3 64.5803 57.27H64.3703C63.6609 57.2299 62.9497 57.2299 62.2403 57.27C61.8949 57.3171 61.5439 57.2432 61.2468 57.0609C60.9497 56.8786 60.7248 56.5992 60.6103 56.27L53.1403 40.27L45.0003 22.87C44.7781 22.3904 44.6621 21.8685 44.6603 21.34C44.6603 19.34 44.6603 17.34 44.6603 15.34V12.07H58.8503C60.1203 12.07 60.5703 11.62 60.5703 10.35V1.86C60.5703 0.400001 60.1703 0 58.7003 0H43.8303C42.3103 0 41.9103 0.41 41.9103 2V6.07C41.9103 11.13 41.9103 16.19 41.9103 21.25C41.8798 21.7609 41.7217 22.256 41.4503 22.69ZM44.6603 2.76H57.7503V9.24H44.6603V2.76ZM42.1303 26.76L42.4203 26.32L43.1003 25.32L58.1003 57.32H8.39031L19.8803 38.92L28.0903 44.76C28.3703 44.96 28.6503 45.17 28.9403 45.35C29.0842 45.4539 29.2479 45.5272 29.4212 45.5654C29.5945 45.6036 29.7738 45.6059 29.9481 45.5722C30.1224 45.5385 30.2879 45.4694 30.4344 45.3693C30.581 45.2692 30.7055 45.1401 30.8003 44.99C30.9403 44.81 31.0603 44.61 31.1803 44.42L31.2903 44.24L42.1303 26.76Z" fill="#F49158"/>
</g>
<defs>
<clipPath id="clip0_99_59">
<rect width="66.11" height="60.06" fill="white"/>
</clipPath>
</defs>
</svg>

<svg xmlns="http://www.w3.org/2000/svg" xmlns:xlink="http://www.w3.org/1999/xlink" viewBox="0 0 67 61">
	<style type="text/css">
	.icon-boundary {
		fill: #F49158;
	}
	</style>

	<g style="clip-path:url(#SVGID_2_);">
		<path class="icon-boundary" d="M41.45,22.69c-3.333,5.333-6.667,10.667-10,16L30,41.07c-0.09,0.15-0.19,0.279-0.29,0.43
			l-0.43,0.62l-0.63-0.42l-0.42-0.28l-2.75-2l-4.73-3.359c-0.413-0.374-0.954-0.574-1.51-0.561c-0.39,0.08-0.77,0.439-1.19,1.109
			l-2.32,3.711c-3.333,5.333-6.667,10.666-10,16C5.574,56.65,5.319,56.926,5,57.104c-0.319,0.179-0.686,0.255-1.05,0.216
			c-0.883-0.045-1.767-0.045-2.65,0c-0.34,0.008-0.664,0.146-0.904,0.386c-0.24,0.241-0.378,0.564-0.386,0.903
			c-0.025,0.344,0.086,0.682,0.309,0.944c0.223,0.262,0.539,0.426,0.881,0.456c0.31,0.025,0.621,0.025,0.93,0h62.44
			c1,0,1.561-0.55,1.55-1.39c-0.01-0.841-0.6-1.32-1.54-1.351h-0.21c-0.709-0.039-1.421-0.039-2.13,0
			c-0.346,0.047-0.696-0.026-0.994-0.209c-0.297-0.182-0.521-0.461-0.636-0.791l-7.47-16L45,22.87
			c-0.222-0.479-0.338-1.001-0.34-1.53c0-2,0-4,0-6v-3.27H58.85c1.271,0,1.721-0.45,1.721-1.72V1.86C60.57,0.4,60.17,0,58.7,0H43.83
			c-1.52,0-1.92,0.41-1.92,2v4.07c0,5.06,0,10.12,0,15.18C41.88,21.761,41.722,22.256,41.45,22.69z M44.66,2.76h13.09v6.48H44.66
			V2.76z M42.131,26.76l0.289-0.44l0.68-1l15,32H8.39l11.49-18.4l8.21,5.84c0.28,0.2,0.56,0.41,0.85,0.59
			c0.144,0.104,0.308,0.178,0.481,0.216s0.353,0.04,0.527,0.007s0.34-0.104,0.486-0.203s0.271-0.229,0.366-0.379
			c0.14-0.18,0.26-0.381,0.38-0.57l0.11-0.18L42.131,26.76z"/>
	</g>
</svg>
